src/DGFullScreen/skin/dark/img/DGRoundControl__fullscreenIconHover_dark.svg

<svg xmlns="http://www.w3.org/2000/svg" width="16" height="16"><path fill="#fff" d="M12 9h4v7h-4zM9 12h5v4h-5z"/><path fill="#282828" d="M10 15h5v-5h-2v3h-3z"/><path fill="#fff" d="M0 9h4v7h-4zM2 12h5v4h-5z"/><path fill="#282828" d="M1 10v5h5v-2h-3v-3z"/><path fill="#fff" d="M0 0h4v7h-4zM9 0h5v4h-5zM12 0h4v7h-4z"/><path fill="#282828" d="M15 6v-5h-5v2h3v3z"/><path fill="#fff" d="M2 0h5v4h-5z"/><path fill="#282828" d="M6 1h-5v5h2v-3h3z"/></svg>

<svg xmlns="http://www.w3.org/2000/svg" width="16" height="16">
    <path d="m 12,9 h 4 v 7 h -4 z m -3,3 h 5 v 4 H 9 z" fill="#fff"/>
    <path d="m 10,15 h 5 v -5 h -2 v 3 h -3 z" fill="#282828"/>
    <path d="m 0,9 h 4 v 7 H 0 z m 2,3 h 5 v 4 H 2 z" fill="#fff"/>
    <path d="m 1,10 v 5 H 6 V 13 H 3 v -3 z" fill="#282828"/>
    <path d="M 0,0 H 4 V 7 H 0 z m 9,0 h 5 V 4 H 9 z m 3,0 h 4 v 7 h -4 z" fill="#fff"/>
    <path d="M 15,6 V 1 h -5 v 2 h 3 v 3 z" fill="#282828"/>
    <path d="M 2,0 H 7 V 4 H 2 z" fill="#fff"/>
    <path d="M 6,1 H 1 V 6 H 3 V 3 h 3 z" fill="#282828"/>
</svg>
